svg/select_arrow_up.svg

<svg xmlns="http://www.w3.org/2000/svg" viewBox="0 0 24 24"><path d="M4 3h1v2H3V4c0-.6.4-1 1-1m16 0c.6 0 1 .4 1 1v1h-2V3zm-5 2V3h2v2zm-4 0V3h2v2zM7 5V3h2v2zm4 16v-2h2v2zm-4 0v-2h2v2zm-3 0c-.6 0-1-.4-1-1v-1h2v2zm-1-6h2v2H3zm0-4h2v2H3zm18 0v2h-2v-2zM3 7h2v2H3zm18 0v2h-2V7zm-2 8-3 3h2v4h2v-4h2z"/></svg>

<svg xmlns="http://www.w3.org/2000/svg" id="mdi-select-arrow-up" viewBox="0 0 24 24"><path d="M4 3H5V5H3V4C3 3.4 3.4 3 4 3M20 3C20.6 3 21 3.4 21 4V5H19V3H20M15 5V3H17V5H15M11 5V3H13V5H11M7 5V3H9V5H7M11 21V19H13V21H11M7 21V19H9V21H7M4 21C3.4 21 3 20.6 3 20V19H5V21H4M3 15H5V17H3V15M3 11H5V13H3V11M21 11V13H19V11H21M3 7H5V9H3V7M21 7V9H19V7H21M19 15L16 18H18V22H20V18H22L19 15Z" /></svg>
